public/twitter.svg

<svg width="30" height="30" viewBox="0 0 30 30" fill="none" xmlns="http://www.w3.org/2000/svg">
<g clip-path="url(#clip0_329_3164)">
<circle cx="15" cy="15" r="15" fill="white"/>
<path d="M24.8611 6.25911C23.9966 6.87083 23.0394 7.33869 22.0264 7.64469C21.4827 7.01757 20.7601 6.57307 19.9563 6.37134C19.1526 6.1696 18.3065 6.22034 17.5324 6.51671C16.7584 6.81308 16.0937 7.34077 15.6284 8.02841C15.163 8.71606 14.9194 9.53048 14.9306 10.3615V11.2671C13.344 11.3084 11.772 10.9554 10.3544 10.2397C8.93678 9.52391 7.71765 8.46756 6.80556 7.16472C6.80556 7.16472 3.19444 15.3152 11.3194 18.9377C9.4602 20.2037 7.24535 20.8385 5 20.7489C13.125 25.2769 23.0556 20.7489 23.0556 10.3344C23.0547 10.0821 23.0305 9.83047 22.9833 9.5827C23.9047 8.6712 24.5549 7.52036 24.8611 6.25911V6.25911Z" stroke="black" stroke-linecap="round" stroke-linejoin="round"/>
</g>
<defs>
<clipPath id="clip0_329_3164">
<rect width="30" height="30" fill="white"/>
</clipPath>
</defs>
</svg>

<svg xmlns="http://www.w3.org/2000/svg" width="30" height="30" fill="none"><g clip-path="url(#a)"><circle cx="15" cy="15" r="15" fill="#fff"/><path stroke="#000" stroke-linecap="round" stroke-linejoin="round" d="M24.861 6.26a9.8 9.8 0 0 1-2.835 1.385 4.04 4.04 0 0 0-4.494-1.128 4.05 4.05 0 0 0-1.904 1.511 4.07 4.07 0 0 0-.697 2.333v.906a9.6 9.6 0 0 1-4.577-1.027 9.63 9.63 0 0 1-3.548-3.075s-3.612 8.15 4.513 11.773A10.5 10.5 0 0 1 5 20.748c8.125 4.529 18.056 0 18.056-10.414q-.002-.38-.073-.751a7 7 0 0 0 1.878-3.324"/></g><defs><clipPath id="a"><path fill="#fff" d="M0 0h30v30H0z"/></clipPath></defs></svg>
